X:7939
T:Mary Ann
T:(Simplified)
C:anon.
O:West Indies (Jamaica)
F:http://abc.musicaviva.com/tunes/jamaica/mary-ann-easy.abc
M:C
L:1/4
K:Bb
"Bb"d2f2|"Gm"B2d2|"Cm7"dce2-|"F7"e2z2|
"Cm7"c2ee|"F"A2c2|"Bb"cBd2-|"F7"d2z2|
"Bb"ddff|"Gm"B2dd|"Cm7"dce2-|"F7"e2z2|
"Cm7"c2ee|"F7"A2c2|"Bb"cBB2-|"Bb"B2z2|]
W:
W:
W:  From Musica Viva - http://www.musicaviva.com
W:  the Internet center for free sheet music downloads.
